X:1
T:Awake and Sing
T:Awake and Sing
T:Joseph Lincoln Hall
T:Alice Jean Cleator, 1900
T:Public Domain Courtesy of the Cyber Hymnal™
T:Public Domain Courtesy of the Cyber Hymnal™
C:Joseph Lincoln Hall
Z:Public Domain
Z:Courtesy of the Cyber Hymnal™
%%score ( 1 2 ) ( 3 4 )
L:1/8
Q:1/4=78
M:2/4
K:C
V:1 treble 
V:2 treble 
V:3 bass 
V:4 bass 
V:1
 [Ec] | [^DA]>[EG] [EG][Ec] | [^DA]>[EG] [EG][EG] | [EG][EA] [EB][Ec] | [FB]3 [Fd] | %5
w: 1.~A-|wake, a- wake, O|heart, and sing! The|Lord is ris’n to-|day! Be-|
w: 2.~No|long- er death has|cru- el sway; A|light sur- rounds the|grave! All|
w: 3.~A-|wake and hail with|heart and voice The|mes- sage of these|hours! With|
 [FA]>[FG] [FG][Fd] | [FA]>[FG] [FG][Fd] | [Fd][E^c] [Fd][F^d] | [Ge]3 [Ec] | [^DA]>[EG] [EG][Ec] | %10
w: hold a gleam of|an- gel wings; The|stone is rolled a-|way! A-|wake, a- wake, O|
w: hail the joy of|Eas- ter day; The|Lord is strong to|save! A-|wake, O heart, the|
w: all the wak- ening|earth re- joice; Be|glad with birds and|flowers. Be-|hold the joy- ous|
 [^DA]>[EG] [EG]G | FE DC | [CA]3 [FA][Fd]>[FA][FA][Fd] | [Ec]>[EG] [EG][EG] | [FG][F^G] [FA][FB] | %15
w: heart, and sing! The|gloom of death is|o’er; Bright an- gels haste the|news to bring, “He|lives for- ev- er-|
w: morn is bright, All|doubt and fear is|o’er! The Lord is ris’n in|power and might, He|lives for- ev- er-|
w: Eas- ter day That|brings the news to|earth Of Eas- ter morn- ing|far a- way, When|life from death had|
 [Ec]3 ||[M:4/4][Q:1/4=110] G2 | %17
w: more!”||
w: more!|A-|
w: birth.||
"^Tenor or Soprano Solo or Girls in Unison" G4 [CE]2 [CEA]2 [CEB]2 | c4 [DF]2 B4 [DF]2 | %19
w: ||
w: wake from thy slum-|* ber, Morn now|
w: ||
 G4 [DF]2 [DFd]2 [DFB]2 | A4 [C=D]2 G4 [CE]2 | G4 [CE]2 [CEA]2 [CEB]2 | d4 [FA]2 A4 | %23
w: ||||
w: * is dawn- ing;|* Je- sus, the|* vi- ctor, Comes|* from the|
w: ||||
 A4 [D=F]2 [DFB]2 [DFc]2 | ([FGBe]2 [FGBd]2 [FGB]2) [Gg]2 | [Gg]4"^Unison" [Aa]2 [Bb]2 | %26
w: |||
w: con- quered tomb. O|sing * * forth|a wel- come,|
w: |||
 [cc']4 [Bb]4 | [Gg]4 [dd']2 [Bb]2 | [Aa]4 [Gg]4 | [Gg]4 [cc']2 [ec']2 | [ec']4 [dd']2 [cc']2 | %31
w: |||||
w: Sing songs|the sweet- est;|Je- sus|hath ris- en!|He lives for-|
w: |||||
 [Bc']2 [Bb]2 [Aa]2 [Bb]2 | !fermata![cc']7 |] %33
w: ||
w: ev- er- more! *||
w: ||
V:2
 x | x4 | x4 | x4 | x4 | x4 | x4 | x4 | x4 | x4 | x3 G | FE DC | x8 | x4 | x4 | x3 ||[M:4/4] x2 | %17
 [CE]2 x8 | [DF]2 [DF]2 x8 | [DF]2 x8 | [C^D]2 [CE]2 x8 | [CE]2 x8 | ([FA]2 F2) F2 x4 | [D^F]2 x8 | %24
 x8 | x8 | x8 | x8 | x8 | x8 | x8 | x8 | x7 |] %33
V:3
 [C,G,] | [C,^F,]>[C,G,] [C,G,][C,G,] | [C,^F,]>[C,G,] [C,G,][C,G,] | [C,G,][C,G,] [C,G,][C,G,] | %4
 [D,G,]3 [G,B,] | [G,C]>[G,B,] [G,B,][G,B,] | [G,C]>[G,B,] [G,B,][G,B,] | %7
 [G,B,][G,^A,] [G,B,][G,B,] | [C,C]3 [C,G,] | [C,^F,]>[C,G,] [C,G,][C,G,] | %10
 [C,^F,]>[C,G,] [C,G,]G, | F,E, D,C, | [F,A,]3 [F,C][D,D]>[D,D][D,D][D,D] | %13
 [G,C]>[G,C] [G,C][G,C] | [G,B,][G,B,] [G,D][G,D] | [C,C]3 ||[M:4/4] z2 | %17
 ([C,G,]2 G,,2) [C,G,]2 G,,2 x2 | ([D,G,]2 G,,2) ([D,G,]2 G,,2) x4 | %19
 ([D,G,]2 G,,2) [D,G,]2 G,,2 x2 | ([C,G,]2 G,,2) ([C,G,]2 G,,2) x4 | %21
 ([C,G,]2 G,,2) [C,G,]2 G,,2 x2 | (D,2 [F,A,D]2) [F,A,D]2 [F,A,D]2 x2 | %23
 [D,A,C]2 [D,A,C]2 [D,A,C]2 [D,A,C]2 x2 | ([G,B,]2 [G,B,]2 [G,B,D]2) [G,B,DF]2 | %25
 (C,2 [G,CE]2) [G,CE]2 [G,CE]2 | (D,2 [G,B,DF]2) ([G,B,DF]2 [G,B,DF]2) | %27
 (G,,2 [G,B,DF]2) [G,B,DF]2 [G,B,DF]2 | (C,2 [F,C^D]2) ([G,CE]2 [G,CE]2) | %29
 (C,2 [G,CE]2) [G,CE]2 [G,CE]2 | (D,2 [F,A,D]2) [F,A,D]2 [F,A,D]2 | %31
 G,,2 [G,B,DF]2 [G,B,DF]2 [G,B,DF]2 | (C,2 [A,CF]2 [G,CE]3) |] %33
V:4
 x | x4 | x4 | x4 | x4 | x4 | x4 | x4 | x4 | x4 | x3 G, | F,E, D,C, | x8 | x4 | x4 | x3 || %16
[M:4/4] x2 | x10 | x12 | x10 | x12 | x10 | x10 | x10 | x8 | x8 | x8 | x8 | x8 | x8 | x8 | x8 | %32
 x7 |] %33

